packages/components/src/components/icon/appstore/ic-appstore-home-dark.svg

<svg width="20" height="22" viewBox="0 0 20 22" fill="none" xmlns="http://www.w3.org/2000/svg">
<path d="M1.87868 9.12132L9.29289 1.70711C9.68342 1.31658 10.3166 1.31658 10.7071 1.70711L18.1213 9.12132C18.6839 9.68393 19 10.447 19 11.2426V20C19 20.5523 18.5523 21 18 21H14C13.4477 21 13 20.5523 13 20V15.5C13 14.9477 12.5523 14.5 12 14.5H8C7.44772 14.5 7 14.9477 7 15.5V20C7 20.5523 6.55228 21 6 21H2C1.44772 21 1 20.5523 1 20V11.2426C1 10.447 1.31607 9.68393 1.87868 9.12132Z" stroke="white"/>
</svg>

<svg width="20" height="22" fill="none" xmlns="http://www.w3.org/2000/svg"><path d="m1.879 9.121 7.414-7.414a1 1 0 0 1 1.414 0l7.414 7.414A3 3 0 0 1 19 11.243V20a1 1 0 0 1-1 1h-4a1 1 0 0 1-1-1v-4.5a1 1 0 0 0-1-1H8a1 1 0 0 0-1 1V20a1 1 0 0 1-1 1H2a1 1 0 0 1-1-1v-8.757a3 3 0 0 1 .879-2.122Z" stroke="#fff"/></svg>
